X:1900
T:Bourrée de la Chapelotte
C:trad.
A:Massif Central
O:France
M:3/8
L:1/8
Q:1/4=120
K:D
F2G|A2A|B/2A/2Bc|BAd|d2d|c2B|A/2B/2AG|F2D|
F2G|A2A|B/2A/2Bc|BAd|d2d|c2B|Aec|d3|
f/2f/2ff|B3|e/2e/2ee|A3|d2d|c2c|A/2B/2AG|F3|
f/2f/2ff|B3|e/2e/2ee|A3|d2d|c2c|Aec|d3||


